X:325
T:No Banjos In Heaven
C:
N:Transcribed by Richard Schwartz
R:bluegrass
L:1/8
Q:1/4=120
M:4/4
K:D
"See "Notes"""for words"z6 Ad | "D"f2 zf gf ed | "G"eB z4 zd | "A"e3/2e/ ee cc cB | 
"D"A4 z3/2z3/2d | f2 ff g2 fd | "G"eB z4 cd | "A"e/e/e ef ge Bc | "D"d6 cd | "A"e2 ze c2 cc | 
"D"BA z6 | "E"e2 ze B2 cd | "A"e4 "Bb"=f4 | "D"ff ff gf ed | "G"eB z6 | "A"e2 ef ge Bc | 
"D"d8 | 


